client/assets/image/icons/external-link.svg

<svg fill="none" height="400" viewBox="0 0 400 400" width="400" xmlns="http://www.w3.org/2000/svg"><path d="m317.024 174.883h-.006-.018c-5.82 0-11.403 2.315-15.518 6.429-4.115 4.115-6.425 9.699-6.425 15.518v139.608c0 4.496-1.787 8.805-4.965 11.982-3.177 3.178-7.486 4.965-11.982 4.965h-213.8833c-4.4958 0-8.8048-1.787-11.9822-4.965-3.1775-3.177-4.9644-7.486-4.9644-11.982v-213.883c0-4.496 1.7869-8.805 4.9644-11.982 3.1774-3.178 7.4867-4.965 11.9822-4.965h139.6133.003c7.838-.001 15.082-4.181 19.001-10.9696 3.92-6.7891 3.92-15.1574 0-21.9468-3.92-6.7897-11.165-10.9699-19.004-10.9699h-139.6082c-16.1347 0-31.608 6.4092-43.0175 17.8153l-.0006.0005c-11.40607 11.4096-17.81526 26.8825-17.81526 43.0175v213.883c0 16.135 6.40919 31.608 17.81526 43.018h.0006c11.4095 11.406 26.8828 17.816 43.0175 17.816h213.8832c16.135 0 31.608-6.41 43.018-17.816 11.406-11.41 17.815-26.883 17.815-43.018v-139.608c0-5.819-2.31-11.403-6.425-15.518-4.11-4.11-9.686-6.424-15.499-6.429zm-159.443 99.345 195.809-195.9961v63.7651c0 7.84 4.18 15.084 10.97 19.005 6.789 3.919 15.157 3.919 21.946 0 6.79-3.921 10.97-11.165 10.97-19.005v-116.6663-.0144-.0144c-.033-2.864-.625-5.6926-1.75-8.3289-2.226-5.3515-6.481-9.60619-11.832-11.83322-2.637-1.12567-5.467-1.71923-8.332-1.75228l-.014-.00017h-.015-116.667c-7.839 0-15.084 4.18052-19.004 10.96997-3.92 6.7891-3.92 15.1574 0 21.9467 3.92 6.7898 11.165 10.97 19.004 10.97h63.766l-195.996 195.809c-.001.001-.003.002-.004.003-4.152 4.121-6.487 9.726-6.487 15.576 0 5.849 2.334 11.453 6.484 15.573 4.121 4.15 9.724 6.484 15.572 6.484 5.851 0 11.456-2.335 15.577-6.488.001-.001.002-.002.003-.003z" fill="#2828d7" stroke="#2828d7" stroke-width="5"/></svg>

<svg width="400" height="400" viewBox="0 0 400 400" fill="none" xmlns="http://www.w3.org/2000/svg">
<path d="M317.024 174.883L317.018 174.883H317C311.18 174.883 305.597 177.198 301.482 181.312C297.367 185.427 295.057 191.011 295.057 196.83V336.438C295.057 340.934 293.27 345.243 290.092 348.42C286.915 351.598 282.606 353.385 278.11 353.385H64.2267C59.7309 353.385 55.4219 351.598 52.2445 348.42C49.067 345.243 47.2801 340.934 47.2801 336.438V122.555C47.2801 118.059 49.067 113.75 52.2445 110.573C55.4219 107.395 59.7312 105.608 64.2267 105.608H203.84C203.841 105.608 203.842 105.608 203.843 105.608C211.681 105.607 218.925 101.427 222.844 94.6384C226.764 87.8493 226.764 79.481 222.844 72.6916C218.924 65.9019 211.679 61.7217 203.84 61.7217H64.2318C48.0971 61.7217 32.6238 68.1309 21.2143 79.537L21.2137 79.5375C9.80763 90.9471 3.39844 106.42 3.39844 122.555V336.438C3.39844 352.573 9.80763 368.046 21.2137 379.456L21.2143 379.456C32.6238 390.862 48.0971 397.272 64.2318 397.272H278.115C294.25 397.272 309.723 390.862 321.133 379.456L321.133 379.456C332.539 368.046 338.948 352.573 338.948 336.438V196.83C338.948 191.011 336.638 185.427 332.523 181.312C328.413 177.202 322.837 174.888 317.024 174.883ZM157.581 274.228L353.39 78.2319V141.997C353.39 149.837 357.57 157.081 364.36 161.002C371.149 164.921 379.517 164.921 386.306 161.002C393.096 157.081 397.276 149.837 397.276 141.997V25.3307V25.3163L397.276 25.3019C397.243 22.4379 396.651 19.6093 395.526 16.973C393.3 11.6215 389.045 7.36681 383.694 5.13978C381.057 4.01411 378.227 3.42055 375.362 3.3875L375.348 3.38733H375.333H258.666C250.827 3.38733 243.582 7.56785 239.662 14.3573C235.742 21.1464 235.742 29.5147 239.662 36.304C243.582 43.0938 250.827 47.274 258.666 47.274H322.432L126.436 243.083C126.435 243.084 126.433 243.085 126.432 243.086C122.28 247.207 119.945 252.812 119.945 258.662C119.945 264.511 122.279 270.115 126.429 274.235C130.55 278.385 136.153 280.719 142.001 280.719C147.852 280.719 153.457 278.384 157.578 274.231C157.579 274.23 157.58 274.229 157.581 274.228Z" fill="#2828D7" stroke="#2828D7" stroke-width="5"/>
</svg>
